X: 25524
T: Marguerita, The
R: waltz
M: 3/4
K: Gmajor
|:D3 EFG|JG3 FG2|JA3Bc2|d4Je2|JB3 A{c/}AG|JB3 A{c/}AG|{c/}A3 B c2|JA4GF|
D3 EFGJ|G3 FG2|A2B2c2|d4Je2|JB3 A{c/}AG|{c/}A3{c/}AGF|G3G3|G3G3:|
g2d2d2|g2d2d2|c3d{c/}AG|JB3B2d|g2d2d2|g2d2d2|Jc3BAG|JA3A2F|
D3 EF2|JG3FG2|A2B2c2|d4Je2|JB3 A{c/}AG|{c/}A3{c/}AGF|G3G3|G3G3|
Jg2d3d|g2d2d2|c3B{c/}BA|JB3B2D|g2d2d2|g2d2d2|Jc3BAG|A3A2F|
D3 EF2|JG3 F G2|A2B2c2|d4Je2|JB3 A{c/}AG|{c/}A3{c/}AGF|G3G3|G3G3||GJA2A3|

